src/pos-icons/close-box-multiple-outline.svg

<svg height="24" viewBox="0 0 24 24" width="24" xmlns="http://www.w3.org/2000/svg"><path d="m20 2h-12c-1.1 0-2 .9-2 2v12c0 1.11.9 2 2 2h12c1.11 0 2-.89 2-2v-12c0-1.1-.89-2-2-2m0 14h-12v-12h12zm-16-10v14h14v2h-14c-1.1 0-2-.89-2-2v-14zm5.77 6.84 2.83-2.84-2.83-2.85 1.4-1.4 2.83 2.85 2.84-2.83 1.4 1.4-2.84 2.83 2.83 2.84-1.4 1.4-2.83-2.84-2.83 2.84z"/></svg>

<?xml version="1.0" encoding="UTF-8"?><!DOCTYPE svg PUBLIC "-//W3C//DTD SVG 1.1//EN" "http://www.w3.org/Graphics/SVG/1.1/DTD/svg11.dtd"><svg xmlns="http://www.w3.org/2000/svg" xmlns:xlink="http://www.w3.org/1999/xlink" version="1.1" id="mdi-close-box-multiple-outline" width="24" height="24" viewBox="0 0 24 24"><path d="M20 2H8C6.9 2 6 2.9 6 4V16C6 17.11 6.9 18 8 18H20C21.11 18 22 17.11 22 16V4C22 2.9 21.11 2 20 2M20 16H8V4H20V16M4 6V20H18V22H4C2.9 22 2 21.11 2 20V6H4M9.77 12.84L12.6 10L9.77 7.15L11.17 5.75L14 8.6L16.84 5.77L18.24 7.17L15.4 10L18.23 12.84L16.83 14.24L14 11.4L11.17 14.24L9.77 12.84Z" /></svg>
